example/public/backrooms.3dl
#Created by: Adobe Photoshop Export Color Lookup Plugin
#Description: thebackroom_color_correction_new1.psd
0 33 66 99 132 165 198 231 264 297 330 363 396 429 462 495 528 561 594 627 660 693 726 759 792 825 858 891 924 957 990 1023
0 0 0
0 0 136
3 1 272
7 3 405
14 5 538
23 8 669
35 12 800
49 17 932
66 23 1063
86 30 1196
99 38 1329
108 47 1462
119 57 1597
130 68 1732
140 80 1869
150 93 2006
161 98 2144
171 104 2283
181 110 2424
191 117 2565
201 123 2707
212 130 2850
222 136 2992
232 142 3134
242 149 3274
253 155 3413
263 161 3550
273 167 3684
283 174 3814
293 180 3940
303 186 4061
314 193 4095
0 132 1
0 128 136
1 130 272
2 131 405
5 133 538
7 135 669
11 137 800
16 139 932
21 141 1063
27 143 1196
35 146 1329
43 148 1462
52 150 1597
62 152 1732
73 155 1869
86 156 2006
95 158 2144
100 160 2283
106 162 2424
112 164 2565
119 166 2707
125 168 2850
131 170 2992
137 172 3134
143 175 3274
150 177 3413
156 179 3550
162 181 3684
168 182 3814
174 184 3940
180 187 4061
190 193 4095
1 264 4
1 264 151
1 256 272
2 258 405
5 260 538
7 262 669
11 264 800
16 266 932
21 268 1063
27 270 1196
35 272 1329
43 274 1462
52 276 1597
62 278 1732
73 280 1869
86 282 2006
95 284 2144
100 286 2283
106 288 2424
112 290 2565
119 293 2707
125 294 2850
131 296 2992
137 299 3134
143 300 3274
150 303 3413
156 304 3550
162 306 3684
168 309 3814
174 310 3940
180 313 4061
186 315 4095
2 396 9
2 396 162
2 396 291
2 383 405
5 386 538
7 388 669
11 390 800
16 392 932
21 394 1063
27 396 1196
35 398 1329
43 400 1462
52 402 1597
62 404 1732
73 406 1869
86 408 2006
95 410 2144
100 412 2283
106 414 2424
112 416 2565
119 418 2707
125 420 2850
131 422 2992
137 424 3134
143 426 3274
150 428 3413
156 430 3550
162 432 3684
168 434 3814
174 436 3940
180 439 4061
186 440 4095
5 527 17
5 527 173
5 527 302
5 527 429
5 510 538
7 512 669
11 514 800
16 516 932
21 518 1063
27 520 1196
35 522 1329
43 524 1462
52 526 1597
62 528 1732
73 530 1869
86 532 2006
95 534 2144
100 536 2283
106 538 2424
112 540 2565
119 542 2707
125 544 2850
131 546 2992
137 548 3134
143 551 3274
150 552 3413
156 554 3550
162 557 3684
168 558 3814
174 560 3940
180 562 4061
186 565 4095
7 657 28
7 657 183
7 657 312
7 657 439
7 657 565
7 636 669
11 638 800
16 640 932
21 642 1063
27 644 1196
35 646 1329
43 648 1462
52 651 1597
62 652 1732
73 654 1869
86 656 2006
95 658 2144
100 660 2283
106 662 2424
112 664 2565
119 666 2707
125 668 2850
131 670 2992
137 672 3134
143 674 3274
150 676 3413
156 678 3550
162 680 3684
168 682 3814
174 684 3940
180 687 4061
186 689 4095
11 787 42
11 787 194
11 787 322
11 787 450
11 787 575
11 787 700
11 762 800
16 764 932
21 766 1063
27 768 1196
35 770 1329
43 772 1462
52 774 1597
62 776 1732
73 778 1869
86 780 2006
95 782 2144
100 784 2283
106 786 2424
112 788 2565
119 790 2707
125 792 2850
131 794 2992
137 796 3134
143 798 3274
150 800 3413
156 802 3550
162 804 3684
168 806 3814
174 808 3940
180 810 4061
186 812 4095
16 917 59
16 917 205
16 917 333
16 917 460
16 917 586
16 917 711
16 917 836
16 888 932
21 890 1063
27 892 1196
35 894 1329
43 896 1462
52 898 1597
62 900 1732
73 902 1869
86 904 2006
95 906 2144
100 908 2283
106 910 2424
112 912 2565
119 915 2707
125 916 2850
131 918 2992
137 921 3134
143 923 3274
150 925 3413
156 927 3550
162 929 3684
168 930 3814
174 933 3940
180 935 4061
186 937 4095
21 1048 79
21 1048 215
21 1048 344
21 1048 471
21 1048 596
21 1048 721
21 1048 846
21 1048 971
21 1015 1063
27 1017 1196
35 1019 1329
43 1021 1462
52 1023 1597
62 1025 1732
73 1027 1869
86 1029 2006
95 1031 2144
100 1033 2283
106 1035 2424
112 1037 2565
119 1039 2707
125 1041 2850
131 1043 2992
137 1045 3134
143 1047 3274
150 1049 3413
156 1051 3550
162 1053 3684
168 1055 3814
174 1057 3940
180 1059 4061
186 1061 4095
27 1180 96
27 1180 226
27 1180 354
27 1180 481
27 1180 606
27 1180 731
27 1180 856
27 1180 981
27 1180 1107
27 1142 1196
35 1144 1329
43 1146 1462
52 1148 1597
62 1150 1732
73 1152 1869
86 1155 2006
95 1156 2144
100 1158 2283
106 1160 2424
112 1162 2565
119 1164 2707
125 1166 2850
131 1169 2992
137 1171 3134
143 1173 3274
150 1175 3413
156 1177 3550
162 1179 3684
168 1181 3814
174 1183 3940
180 1185 4061
186 1187 4095
35 1312 106
35 1312 237
35 1312 365
35 1312 491
35 1312 616
35 1312 742
35 1312 867
35 1312 992
35 1312 1118
35 1312 1244
35 1271 1329
43 1273 1462
52 1274 1597
62 1276 1732
73 1279 1869
86 1281 2006
95 1283 2144
100 1285 2283
106 1287 2424
112 1289 2565
119 1291 2707
125 1293 2850
131 1295 2992
137 1297 3134
143 1299 3274
150 1301 3413
156 1303 3550
162 1305 3684
168 1307 3814
174 1309 3940
180 1311 4061
186 1313 4095
43 1446 117
43 1446 247
43 1446 375
43 1446 502
43 1446 627
43 1446 752
43 1446 877
43 1446 1002
43 1446 1128
43 1446 1254
43 1446 1382
43 1400 1462
52 1402 1597
62 1403 1732
73 1406 1869
86 1408 2006
95 1410 2144
100 1412 2283
106 1414 2424
112 1416 2565
119 1418 2707
125 1420 2850
131 1422 2992
137 1424 3134
143 1426 3274
150 1428 3413
156 1430 3550
162 1433 3684
168 1434 3814
174 1437 3940
180 1439 4061
186 1440 4095
52 1581 129
52 1581 258
52 1581 386
52 1581 512
52 1581 637
52 1581 762
52 1581 887
52 1581 1012
52 1581 1138
52 1581 1265
52 1581 1392
52 1581 1520
52 1529 1597
62 1531 1732
73 1534 1869
86 1536 2006
95 1538 2144
100 1540 2283
106 1542 2424
112 1544 2565
119 1545 2707
125 1548 2850
131 1550 2992
137 1552 3134
143 1554 3274
150 1556 3413
156 1558 3550
162 1560 3684
168 1562 3814
174 1565 3940
180 1566 4061
186 1569 4095
62 1716 139
62 1716 268
62 1716 396
62 1716 522
62 1716 648
62 1716 772
62 1716 897
62 1716 1023
62 1716 1149
62 1716 1275
62 1716 1403
62 1716 1531
62 1716 1659
62 1660 1732
73 1662 1869
86 1664 2006
95 1666 2144
100 1668 2283
106 1670 2424
112 1672 2565
119 1674 2707
125 1677 2850
131 1679 2992
137 1681 3134
143 1683 3274
150 1685 3413
156 1687 3550
162 1689 3684
168 1692 3814
174 1693 3940
180 1695 4061
186 1698 4095
73 1852 150
73 1852 279
73 1852 406
73 1852 533
73 1852 658
73 1852 783
73 1852 908
73 1852 1033
73 1852 1159
73 1852 1286
73 1852 1413
73 1852 1541
73 1852 1670
73 1852 1799
73 1792 1869
86 1794 2006
95 1796 2144
100 1798 2283
106 1800 2424
112 1802 2565
119 1804 2707
125 1807 2850
131 1808 2992
137 1810 3134
143 1812 3274
150 1815 3413
156 1816 3550
162 1819 3684
168 1821 3814
174 1823 3940
180 1825 4061
186 1828 4095
86 1989 161
86 1989 290
86 1989 417
86 1989 543
86 1989 668
86 1989 793
86 1989 918
86 1989 1043
86 1989 1170
86 1989 1296
86 1989 1424
86 1989 1552
86 1989 1681
86 1989 1810
86 1989 1940
86 1924 2006
95 1926 2144
100 1928 2283
106 1930 2424
112 1933 2565
119 1935 2707
125 1937 2850
131 1939 2992
137 1941 3134
143 1943 3274
150 1946 3413
156 1947 3550
162 1949 3684
168 1951 3814
174 1954 3940
180 1956 4061
186 1958 4095
95 2128 172
95 2128 300
95 2128 428
95 2128 554
95 2128 679
95 2128 804
95 2128 929
95 2128 1054
95 2128 1180
95 2128 1307
95 2128 1434
95 2128 1562
95 2128 1691
95 2128 1821
95 2128 1951
95 2128 2082
95 2057 2144
100 2060 2283
106 2062 2424
112 2064 2565
119 2066 2707
125 2068 2850
131 2070 2992
137 2072 3134
143 2075 3274
150 2076 3413
156 2079 3550
162 2081 3684
168 2084 3814
174 2085 3940
180 2088 4061
186 2089 4095
100 2267 182
100 2267 311
100 2267 438
100 2267 564
100 2267 689
100 2267 814
100 2267 939
100 2267 1064
100 2267 1190
100 2267 1317
100 2267 1444
100 2267 1573
100 2267 1702
100 2267 1831
100 2267 1962
100 2267 2093
100 2267 2226
100 2192 2283
106 2194 2424
112 2197 2565
119 2199 2707
125 2201 2850
131 2203 2992
137 2205 3134
143 2207 3274
150 2209 3413
156 2211 3550
162 2214 3684
168 2216 3814
174 2218 3940
180 2220 4061
186 2222 4095
106 2409 193
106 2409 321
106 2409 448
106 2409 574
106 2409 699
106 2409 824
106 2409 949
106 2409 1075
106 2409 1201
106 2409 1328
106 2409 1455
106 2409 1583
106 2409 1713
106 2409 1842
106 2409 1973
106 2409 2104
106 2409 2236
106 2409 2370
106 2328 2424
112 2330 2565
119 2332 2707
125 2335 2850
131 2336 2992
137 2339 3134
143 2341 3274
150 2343 3413
156 2346 3550
162 2348 3684
168 2349 3814
174 2352 3940
180 2354 4061
186 2356 4095
112 2551 203
112 2551 332
112 2551 459
112 2551 585
112 2551 709
112 2551 835
112 2551 959
112 2551 1085
112 2551 1212
112 2551 1338
112 2551 1466
112 2551 1594
112 2551 1723
112 2551 1853
112 2551 1983
112 2551 2115
112 2551 2247
112 2551 2381
112 2551 2515
112 2465 2565
119 2467 2707
125 2469 2850
131 2471 2992
137 2474 3134
143 2476 3274
150 2478 3413
156 2480 3550
162 2482 3684
168 2484 3814
174 2487 3940
180 2489 4061
186 2492 4095
119 2693 214
119 2693 342
119 2693 469
119 2693 595
119 2693 720
119 2693 845
119 2693 970
119 2693 1096
119 2693 1222
119 2693 1349
119 2693 1476
119 2693 1605
119 2693 1733
119 2693 1863
119 2693 1994
119 2693 2126
119 2693 2258
119 2693 2392
119 2693 2526
119 2693 2662
119 2603 2707
125 2605 2850
131 2607 2992
137 2610 3134
143 2611 3274
150 2614 3413
156 2616 3550
162 2618 3684
168 2620 3814
174 2623 3940
180 2625 4061
186 2627 4095
125 2836 225
125 2836 353
125 2836 479
125 2836 605
125 2836 730
125 2836 855
125 2836 980
125 2836 1106
125 2836 1232
125 2836 1359
125 2836 1487
125 2836 1615
125 2836 1744
125 2836 1875
125 2836 2005
125 2836 2137
125 2836 2270
125 2836 2403
125 2836 2538
125 2836 2673
125 2836 2809
125 2741 2850
131 2743 2992
137 2746 3134
143 2748 3274
150 2750 3413
156 2752 3550
162 2755 3684
168 2757 3814
174 2759 3940
180 2761 4061
186 2763 4095
131 2979 235
131 2979 363
131 2979 490
131 2979 616
131 2979 741
131 2979 866
131 2979 991
131 2979 1116
131 2979 1242
131 2979 1370
131 2979 1498
131 2979 1626
131 2979 1755
131 2979 1885
131 2979 2015
131 2979 2148
131 2979 2280
131 2979 2414
131 2979 2549
131 2979 2684
131 2979 2820
131 2979 2955
131 2880 2992
137 2882 3134
143 2884 3274
150 2886 3413
156 2889 3550
162 2891 3684
168 2893 3814
174 2895 3940
180 2898 4061
186 2900 4095
137 3122 246
137 3122 374
137 3122 500
137 3122 626
137 3122 751
137 3122 875
137 3122 1001
137 3122 1127
137 3122 1253
137 3122 1381
137 3122 1508
137 3122 1637
137 3122 1766
137 3122 1896
137 3122 2027
137 3122 2158
137 3122 2291
137 3122 2426
137 3122 2560
137 3122 2696
137 3122 2831
137 3122 2967
137 3122 3102
137 3018 3134
143 3020 3274
150 3022 3413
156 3025 3550
162 3027 3684
168 3030 3814
174 3032 3940
180 3033 4061
186 3036 4095
143 3264 257
143 3264 385
143 3264 511
143 3264 636
143 3264 761
143 3264 886
143 3264 1011
143 3264 1137
143 3264 1263
143 3264 1391
143 3264 1519
143 3264 1647
143 3264 1777
143 3264 1907
143 3264 2037
143 3264 2169
143 3264 2303
143 3264 2436
143 3264 2571
143 3264 2707
143 3264 2842
143 3264 2978
143 3264 3113
143 3264 3247
143 3156 3274
150 3158 3413
156 3161 3550
162 3163 3684
168 3165 3814
174 3167 3940
180 3170 4061
186 3172 4095
150 3404 267
150 3404 395
150 3404 521
150 3404 647
150 3404 771
150 3404 896
150 3404 1022
150 3404 1148
150 3404 1274
150 3404 1402
150 3404 1529
150 3404 1658
150 3404 1787
150 3404 1917
150 3404 2048
150 3404 2181
150 3404 2313
150 3404 2447
150 3404 2582
150 3404 2718
150 3404 2853
150 3404 2989
150 3404 3124
150 3404 3258
150 3404 3391
150 3294 3413
156 3295 3550
162 3298 3684
168 3300 3814
174 3302 3940
180 3304 4061
186 3306 4095
156 3542 278
156 3542 406
156 3542 531
156 3542 657
156 3542 782
156 3542 907
156 3542 1032
156 3542 1158
156 3542 1284
156 3542 1412
156 3542 1539
156 3542 1669
156 3542 1797
156 3542 1928
156 3542 2059
156 3542 2191
156 3542 2325
156 3542 2458
156 3542 2594
156 3542 2729
156 3542 2865
156 3542 3000
156 3542 3135
156 3542 3269
156 3542 3402
156 3542 3532
156 3429 3550
162 3431 3684
168 3433 3814
174 3435 3940
180 3437 4061
186 3439 4095
162 3677 288
162 3677 416
162 3677 542
162 3677 667
162 3677 792
162 3677 917
162 3677 1042
162 3677 1169
162 3677 1295
162 3677 1422
162 3677 1550
162 3677 1679
162 3677 1808
162 3677 1939
162 3677 2070
162 3677 2202
162 3677 2335
162 3677 2470
162 3677 2605
162 3677 2740
162 3677 2876
162 3677 3011
162 3677 3147
162 3677 3280
162 3677 3413
162 3677 3544
162 3677 3671
162 3562 3684
168 3564 3814
174 3567 3940
180 3568 4061
186 3571 4095
168 3809 299
168 3809 426
168 3809 553
168 3809 678
