example/public/desert.3dl
#Created by: Adobe Photoshop Export Color Lookup Plugin
#Description: desert_color_correction3.psd
0 33 66 99 132 165 198 231 264 297 330 363 396 429 462 495 528 561 594 627 660 693 726 759 792 825 858 891 924 957 990 1023
0 0 0
0 0 162
0 0 328
0 0 491
0 0 647
0 0 794
0 0 929
0 0 1052
0 0 1171
0 0 1294
0 0 1427
0 0 1566
0 0 1707
0 0 1846
0 0 1981
0 0 2111
0 0 2235
0 0 2359
0 0 2481
0 0 2600
0 0 2715
0 0 2830
0 0 2947
0 0 3071
0 0 3205
0 0 3349
0 0 3496
0 0 3636
0 0 3760
0 0 3864
0 0 3952
0 0 4027
0 158 0
0 158 162
0 158 328
0 158 491
0 158 647
0 158 794
0 158 929
0 158 1052
0 158 1171
0 158 1294
0 158 1427
0 158 1566
0 158 1707
0 158 1846
0 158 1981
0 158 2111
0 158 2235
0 158 2359
0 158 2481
0 158 2600
0 158 2715
0 158 2830
0 158 2947
0 158 3071
0 158 3205
0 158 3349
0 158 3496
0 158 3636
0 158 3760
0 158 3864
0 158 3952
0 158 4027
0 320 0
0 320 162
0 320 328
0 320 491
0 320 647
0 320 794
0 320 929
0 320 1052
0 320 1171
0 320 1294
0 320 1427
0 320 1566
0 320 1707
0 320 1846
0 320 1981
0 320 2111
0 320 2235
0 320 2359
0 320 2481
0 320 2600
0 320 2715
0 320 2830
0 320 2947
0 320 3071
0 320 3205
0 320 3349
0 320 3496
0 320 3636
0 320 3760
0 320 3864
0 320 3952
0 320 4027
0 480 0
0 480 162
0 480 328
0 480 491
0 480 647
0 480 794
0 480 929
0 480 1052
0 480 1171
0 480 1294
0 480 1427
0 480 1566
0 480 1707
0 480 1846
0 480 1981
0 480 2111
0 480 2235
0 480 2359
0 480 2481
0 480 2600
0 480 2715
0 480 2830
0 480 2947
0 480 3071
0 480 3205
0 480 3349
0 480 3496
0 480 3636
0 480 3760
0 480 3864
0 480 3952
0 480 4027
0 635 0
0 635 162
0 635 328
0 635 491
0 635 647
0 635 794
0 635 929
0 635 1052
0 635 1171
0 635 1294
0 635 1427
0 635 1566
0 635 1707
0 635 1846
0 635 1981
0 635 2111
0 635 2235
0 635 2359
0 635 2481
0 635 2600
0 635 2715
0 635 2830
0 635 2947
0 635 3071
0 635 3205
0 635 3349
0 635 3496
0 635 3636
0 635 3760
0 635 3864
0 635 3952
0 635 4027
0 781 0
0 781 162
0 781 328
0 781 491
0 781 647
0 781 794
0 781 929
0 781 1052
0 781 1171
0 781 1294
0 781 1427
0 781 1566
0 781 1707
0 781 1846
0 781 1981
0 781 2111
0 781 2235
0 781 2359
0 781 2481
0 781 2600
0 781 2715
0 781 2830
0 781 2947
0 781 3071
0 781 3205
0 781 3349
0 781 3496
0 781 3636
0 781 3760
0 781 3864
0 781 3952
0 781 4027
0 917 0
0 917 162
0 917 328
0 917 491
0 917 647
0 917 794
0 917 929
0 917 1052
0 917 1171
0 917 1294
0 917 1427
0 917 1566
0 917 1707
0 917 1846
0 917 1981
0 917 2111
0 917 2235
0 917 2359
0 917 2481
0 917 2600
0 917 2715
0 917 2830
0 917 2947
0 917 3071
0 917 3205
0 917 3349
0 917 3496
0 917 3636
0 917 3760
0 917 3864
0 917 3952
0 917 4027
0 1040 0
0 1040 162
0 1040 328
0 1040 491
0 1040 647
0 1040 794
0 1040 929
0 1040 1052
0 1040 1171
0 1040 1294
0 1040 1427
0 1040 1566
0 1040 1707
0 1040 1846
0 1040 1981
0 1040 2111
0 1040 2235
0 1040 2359
0 1040 2481
0 1040 2600
0 1040 2715
0 1040 2830
0 1040 2947
0 1040 3071
0 1040 3205
0 1040 3349
0 1040 3496
0 1040 3636
0 1040 3760
0 1040 3864
0 1040 3952
0 1040 4027
0 1158 0
0 1158 162
0 1158 328
0 1158 491
0 1158 647
0 1158 794
0 1158 929
0 1158 1052
0 1158 1171
0 1158 1294
0 1158 1427
0 1158 1566
0 1158 1707
0 1158 1846
0 1158 1981
0 1158 2111
0 1158 2235
0 1158 2359
0 1158 2481
0 1158 2600
0 1158 2715
0 1158 2830
0 1158 2947
0 1158 3071
0 1158 3205
0 1158 3349
0 1158 3496
0 1158 3636
0 1158 3760
0 1158 3864
0 1158 3952
0 1158 4027
0 1280 0
0 1280 162
0 1280 328
0 1280 491
0 1280 647
0 1280 794
0 1280 929
0 1280 1052
0 1280 1171
0 1280 1294
0 1280 1427
0 1280 1566
0 1280 1707
0 1280 1846
0 1280 1981
0 1280 2111
0 1280 2235
0 1280 2359
0 1280 2481
0 1280 2600
0 1280 2715
0 1280 2830
0 1280 2947
0 1280 3071
0 1280 3205
0 1280 3349
0 1280 3496
0 1280 3636
0 1280 3760
0 1280 3864
0 1280 3952
0 1280 4027
0 1412 0
0 1412 162
0 1412 328
0 1412 491
0 1412 647
0 1412 794
0 1412 929
0 1412 1052
0 1412 1171
0 1412 1294
0 1412 1427
0 1412 1566
0 1412 1707
0 1412 1846
0 1412 1981
0 1412 2111
0 1412 2235
0 1412 2359
0 1412 2481
0 1412 2600
0 1412 2715
0 1412 2830
0 1412 2947
0 1412 3071
0 1412 3205
0 1412 3349
0 1412 3496
0 1412 3636
0 1412 3760
0 1412 3864
0 1412 3952
0 1412 4027
0 1550 0
0 1550 162
0 1550 328
0 1550 491
0 1550 647
0 1550 794
0 1550 929
0 1550 1052
0 1550 1171
0 1550 1294
0 1550 1427
0 1550 1566
0 1550 1707
0 1550 1846
0 1550 1981
0 1550 2111
0 1550 2235
0 1550 2359
0 1550 2481
0 1550 2600
0 1550 2715
0 1550 2830
0 1550 2947
0 1550 3071
0 1550 3205
0 1550 3349
0 1550 3496
0 1550 3636
0 1550 3760
0 1550 3864
0 1550 3952
0 1550 4027
0 1691 0
0 1691 162
0 1691 328
0 1691 491
0 1691 647
0 1691 794
0 1691 929
0 1691 1052
0 1691 1171
0 1691 1294
0 1691 1427
0 1691 1566
0 1691 1707
0 1691 1846
0 1691 1981
0 1691 2111
0 1691 2235
0 1691 2359
0 1691 2481
0 1691 2600
0 1691 2715
0 1691 2830
0 1691 2947
0 1691 3071
0 1691 3205
0 1691 3349
0 1691 3496
0 1691 3636
0 1691 3760
0 1691 3864
0 1691 3952
0 1691 4027
0 1831 0
0 1831 162
0 1831 328
0 1831 491
0 1831 647
0 1831 794
0 1831 929
0 1831 1052
0 1831 1171
0 1831 1294
0 1831 1427
0 1831 1566
0 1831 1707
0 1831 1846
0 1831 1981
0 1831 2111
0 1831 2235
0 1831 2359
0 1831 2481
0 1831 2600
0 1831 2715
0 1831 2830
0 1831 2947
0 1831 3071
0 1831 3205
0 1831 3349
0 1831 3496
0 1831 3636
0 1831 3760
0 1831 3864
0 1831 3952
0 1831 4027
0 1966 0
0 1966 162
0 1966 328
0 1966 491
0 1966 647
0 1966 794
0 1966 929
0 1966 1052
0 1966 1171
0 1966 1294
0 1966 1427
0 1966 1566
0 1966 1707
0 1966 1846
0 1966 1981
0 1966 2111
0 1966 2235
0 1966 2359
0 1966 2481
0 1966 2600
0 1966 2715
0 1966 2830
0 1966 2947
0 1966 3071
0 1966 3205
0 1966 3349
0 1966 3496
0 1966 3636
0 1966 3760
0 1966 3864
0 1966 3952
0 1966 4027
0 2097 0
0 2097 162
0 2097 328
0 2097 491
0 2097 647
0 2097 794
0 2097 929
0 2097 1052
0 2097 1171
0 2097 1294
0 2097 1427
0 2097 1566
0 2097 1707
0 2097 1846
0 2097 1981
0 2097 2111
0 2097 2235
0 2097 2359
0 2097 2481
0 2097 2600
0 2097 2715
0 2097 2830
0 2097 2947
0 2097 3071
0 2097 3205
0 2097 3349
0 2097 3496
0 2097 3636
0 2097 3760
0 2097 3864
0 2097 3952
0 2097 4027
0 2222 0
0 2222 162
0 2222 328
0 2222 491
0 2222 647
0 2222 794
0 2222 929
0 2222 1052
0 2222 1171
0 2222 1294
0 2222 1427
0 2222 1566
0 2222 1707
0 2222 1846
0 2222 1981
0 2222 2111
0 2222 2235
0 2222 2359
0 2222 2481
0 2222 2600
0 2222 2715
0 2222 2830
0 2222 2947
0 2222 3071
0 2222 3205
0 2222 3349
0 2222 3496
0 2222 3636
0 2222 3760
0 2222 3864
0 2222 3952
0 2222 4027
0 2346 0
0 2346 162
0 2346 328
0 2346 491
0 2346 647
0 2346 794
0 2346 929
0 2346 1052
0 2346 1171
0 2346 1294
0 2346 1427
0 2346 1566
0 2346 1707
0 2346 1846
0 2346 1981
0 2346 2111
0 2346 2235
0 2346 2359
0 2346 2481
0 2346 2600
0 2346 2715
0 2346 2830
0 2346 2947
0 2346 3071
0 2346 3205
0 2346 3349
0 2346 3496
0 2346 3636
0 2346 3760
0 2346 3864
0 2346 3952
0 2346 4027
0 2469 0
0 2469 162
0 2469 328
0 2469 491
0 2469 647
0 2469 794
0 2469 929
0 2469 1052
0 2469 1171
0 2469 1294
0 2469 1427
0 2469 1566
0 2469 1707
0 2469 1846
0 2469 1981
0 2469 2111
0 2469 2235
0 2469 2359
0 2469 2481
0 2469 2600
0 2469 2715
0 2469 2830
0 2469 2947
0 2469 3071
0 2469 3205
0 2469 3349
0 2469 3496
0 2469 3636
0 2469 3760
0 2469 3864
0 2469 3952
0 2469 4027
0 2589 0
0 2589 162
0 2589 328
0 2589 491
0 2589 647
0 2589 794
0 2589 929
0 2589 1052
0 2589 1171
0 2589 1294
0 2589 1427
0 2589 1566
0 2589 1707
0 2589 1846
0 2589 1981
0 2589 2111
0 2589 2235
0 2589 2359
0 2589 2481
0 2589 2600
0 2589 2715
0 2589 2830
0 2589 2947
0 2589 3071
0 2589 3205
0 2589 3349
0 2589 3496
0 2589 3636
0 2589 3760
0 2589 3864
0 2589 3952
0 2589 4027
0 2705 0
0 2705 162
0 2705 328
0 2705 491
0 2705 647
0 2705 794
0 2705 929
0 2705 1052
0 2705 1171
0 2705 1294
0 2705 1427
0 2705 1566
0 2705 1707
0 2705 1846
0 2705 1981
0 2705 2111
0 2705 2235
0 2705 2359
0 2705 2481
0 2705 2600
0 2705 2715
0 2705 2830
0 2705 2947
0 2705 3071
0 2705 3205
0 2705 3349
0 2705 3496
0 2705 3636
0 2705 3760
0 2705 3864
0 2705 3952
0 2705 4027
0 2821 0
0 2821 162
0 2821 328
0 2821 491
0 2821 647
0 2821 794
0 2821 929
0 2821 1052
0 2821 1171
0 2821 1294
0 2821 1427
0 2821 1566
0 2821 1707
0 2821 1846
0 2821 1981
0 2821 2111
0 2821 2235
0 2821 2359
0 2821 2481
0 2821 2600
0 2821 2715
0 2821 2830
0 2821 2947
0 2821 3071
0 2821 3205
0 2821 3349
0 2821 3496
0 2821 3636
0 2821 3760
0 2821 3864
0 2821 3952
0 2821 4027
0 2938 0
0 2938 162
0 2938 328
0 2938 491
0 2938 647
0 2938 794
0 2938 929
0 2938 1052
0 2938 1171
0 2938 1294
0 2938 1427
0 2938 1566
0 2938 1707
0 2938 1846
0 2938 1981
0 2938 2111
0 2938 2235
0 2938 2359
0 2938 2481
0 2938 2600
0 2938 2715
0 2938 2830
0 2938 2947
0 2938 3071
0 2938 3205
0 2938 3349
0 2938 3496
0 2938 3636
0 2938 3760
0 2938 3864
0 2938 3952
0 2938 4027
0 3062 0
0 3062 162
0 3062 328
0 3062 491
0 3062 647
0 3062 794
0 3062 929
0 3062 1052
0 3062 1171
0 3062 1294
0 3062 1427
0 3062 1566
0 3062 1707
0 3062 1846
0 3062 1981
0 3062 2111
0 3062 2235
0 3062 2359
0 3062 2481
0 3062 2600
0 3062 2715
0 3062 2830
0 3062 2947
0 3062 3071
0 3062 3205
0 3062 3349
0 3062 3496
0 3062 3636
0 3062 3760
0 3062 3864
0 3062 3952
0 3062 4027
0 3196 0
0 3196 162
0 3196 328
0 3196 491
0 3196 647
0 3196 794
0 3196 929
0 3196 1052
0 3196 1171
0 3196 1294
0 3196 1427
0 3196 1566
0 3196 1707
0 3196 1846
0 3196 1981
0 3196 2111
0 3196 2235
0 3196 2359
0 3196 2481
0 3196 2600
0 3196 2715
0 3196 2830
0 3196 2947
0 3196 3071
0 3196 3205
0 3196 3349
0 3196 3496
0 3196 3636
0 3196 3760
0 3196 3864
0 3196 3952
0 3196 4027
0 3341 0
0 3341 162
0 3341 328
0 3341 491
0 3341 647
0 3341 794
0 3341 929
0 3341 1052
0 3341 1171
0 3341 1294
0 3341 1427
0 3341 1566
0 3341 1707
0 3341 1846
0 3341 1981
0 3341 2111
0 3341 2235
0 3341 2359
0 3341 2481
0 3341 2600
0 3341 2715
0 3341 2830
0 3341 2947
0 3341 3071
0 3341 3205
0 3341 3349
0 3341 3496
0 3341 3636
0 3341 3760
0 3341 3864
0 3341 3952
0 3341 4027
0 3489 0
0 3489 162
0 3489 328
0 3489 491
0 3489 647
0 3489 794
0 3489 929
0 3489 1052
0 3489 1171
0 3489 1294
0 3489 1427
0 3489 1566
0 3489 1707
0 3489 1846
0 3489 1981
0 3489 2111
0 3489 2235
0 3489 2359
0 3489 2481
0 3489 2600
0 3489 2715
0 3489 2830
0 3489 2947
0 3489 3071
0 3489 3205
0 3489 3349
0 3489 3496
0 3489 3636
0 3489 3760
0 3489 3864
0 3489 3952
0 3489 4027
0 3631 0
0 3631 162
0 3631 328
0 3631 491
0 3631 647
0 3631 794
0 3631 929
0 3631 1052
0 3631 1171
0 3631 1294
0 3631 1427
0 3631 1566
0 3631 1707
0 3631 1846
0 3631 1981
0 3631 2111
0 3631 2235
0 3631 2359
0 3631 2481
0 3631 2600
0 3631 2715
0 3631 2830
0 3631 2947
0 3631 3071
0 3631 3205
0 3631 3349
0 3631 3496
0 3631 3636
0 3631 3760
0 3631 3864
0 3631 3952
0 3631 4027
0 3756 0
0 3756 162
0 3756 328
0 3756 491
