example/public/gym.3dl
#Created by: Adobe Photoshop Export Color Lookup Plugin
0 33 66 99 132 165 198 231 264 297 330 363 396 429 462 495 528 561 594 627 660 693 726 759 792 825 858 891 924 957 990 1023
0 0 0
0 0 137
0 0 291
0 0 440
0 0 585
0 0 725
0 0 860
0 0 991
0 0 1118
0 0 1241
0 0 1361
0 0 1480
0 0 1600
0 0 1721
0 0 1846
0 0 1976
0 0 2111
0 0 2253
0 0 2398
0 0 2545
0 0 2691
0 0 2834
0 0 2974
0 0 3113
0 0 3250
0 0 3389
0 0 3530
0 0 3674
0 0 3826
0 0 3987
0 0 4095
0 0 4095
0 147 0
0 147 137
0 147 291
0 147 440
0 147 585
0 147 725
0 147 860
0 147 991
0 147 1118
0 147 1241
0 147 1361
0 147 1480
0 147 1600
0 147 1721
0 147 1846
0 147 1976
0 147 2111
0 147 2253
0 147 2398
0 147 2545
0 147 2691
0 147 2834
0 147 2974
0 147 3113
0 147 3250
0 147 3389
0 147 3530
0 147 3674
0 147 3826
0 147 3987
0 147 4095
0 147 4095
0 295 0
0 295 137
0 295 291
0 295 440
0 295 585
0 295 725
0 295 860
0 295 991
0 295 1118
0 295 1241
0 295 1361
0 295 1480
0 295 1600
0 295 1721
0 295 1846
0 295 1976
0 295 2111
0 295 2253
0 295 2398
0 295 2545
0 295 2691
0 295 2834
0 295 2974
0 295 3113
0 295 3250
0 295 3389
0 295 3530
0 295 3674
0 295 3826
0 295 3987
0 295 4095
0 295 4095
0 438 0
0 438 137
0 438 291
0 438 440
0 438 585
0 438 725
0 438 860
0 438 991
0 438 1118
0 438 1241
0 438 1361
0 438 1480
0 438 1600
0 438 1721
0 438 1846
0 438 1976
0 438 2111
0 438 2253
0 438 2398
0 438 2545
0 438 2691
0 438 2834
0 438 2974
0 438 3113
0 438 3250
0 438 3389
0 438 3530
0 438 3674
0 438 3826
0 438 3987
0 438 4095
0 438 4095
0 577 0
0 577 137
0 577 291
0 577 440
0 577 585
0 577 725
0 577 860
0 577 991
0 577 1118
0 577 1241
0 577 1361
0 577 1480
0 577 1600
0 577 1721
0 577 1846
0 577 1976
0 577 2111
0 577 2253
0 577 2398
0 577 2545
0 577 2691
0 577 2834
0 577 2974
0 577 3113
0 577 3250
0 577 3389
0 577 3530
0 577 3674
0 577 3826
0 577 3987
0 577 4095
0 577 4095
0 711 0
0 711 137
0 711 291
0 711 440
0 711 585
0 711 725
0 711 860
0 711 991
0 711 1118
0 711 1241
0 711 1361
0 711 1480
0 711 1600
0 711 1721
0 711 1846
0 711 1976
0 711 2111
0 711 2253
0 711 2398
0 711 2545
0 711 2691
0 711 2834
0 711 2974
0 711 3113
0 711 3250
0 711 3389
0 711 3530
0 711 3674
0 711 3826
0 711 3987
0 711 4095
0 711 4095
0 842 0
0 842 137
0 842 291
0 842 440
0 842 585
0 842 725
0 842 860
0 842 991
0 842 1118
0 842 1241
0 842 1361
0 842 1480
0 842 1600
0 842 1721
0 842 1846
0 842 1976
0 842 2111
0 842 2253
0 842 2398
0 842 2545
0 842 2691
0 842 2834
0 842 2974
0 842 3113
0 842 3250
0 842 3389
0 842 3530
0 842 3674
0 842 3826
0 842 3987
0 842 4095
0 842 4095
0 968 0
0 968 137
0 968 291
0 968 440
0 968 585
0 968 725
0 968 860
0 968 991
0 968 1118
0 968 1241
0 968 1361
0 968 1480
0 968 1600
0 968 1721
0 968 1846
0 968 1976
0 968 2111
0 968 2253
0 968 2398
0 968 2545
0 968 2691
0 968 2834
0 968 2974
0 968 3113
0 968 3250
0 968 3389
0 968 3530
0 968 3674
0 968 3826
0 968 3987
0 968 4095
0 968 4095
0 1089 0
0 1089 137
0 1089 291
0 1089 440
0 1089 585
0 1089 725
0 1089 860
0 1089 991
0 1089 1118
0 1089 1241
0 1089 1361
0 1089 1480
0 1089 1600
0 1089 1721
0 1089 1846
0 1089 1976
0 1089 2111
0 1089 2253
0 1089 2398
0 1089 2545
0 1089 2691
0 1089 2834
0 1089 2974
0 1089 3113
0 1089 3250
0 1089 3389
0 1089 3530
0 1089 3674
0 1089 3826
0 1089 3987
0 1089 4095
0 1089 4095
0 1207 0
0 1207 137
0 1207 291
0 1207 440
0 1207 585
0 1207 725
0 1207 860
0 1207 991
0 1207 1118
0 1207 1241
0 1207 1361
0 1207 1480
0 1207 1600
0 1207 1721
0 1207 1846
0 1207 1976
0 1207 2111
0 1207 2253
0 1207 2398
0 1207 2545
0 1207 2691
0 1207 2834
0 1207 2974
0 1207 3113
0 1207 3250
0 1207 3389
0 1207 3530
0 1207 3674
0 1207 3826
0 1207 3987
0 1207 4095
0 1207 4095
0 1323 0
0 1323 137
0 1323 291
0 1323 440
0 1323 585
0 1323 725
0 1323 860
0 1323 991
0 1323 1118
0 1323 1241
0 1323 1361
0 1323 1480
0 1323 1600
0 1323 1721
0 1323 1846
0 1323 1976
0 1323 2111
0 1323 2253
0 1323 2398
0 1323 2545
0 1323 2691
0 1323 2834
0 1323 2974
0 1323 3113
0 1323 3250
0 1323 3389
0 1323 3530
0 1323 3674
0 1323 3826
0 1323 3987
0 1323 4095
0 1323 4095
0 1437 0
0 1437 137
0 1437 291
0 1437 440
0 1437 585
0 1437 725
0 1437 860
0 1437 991
0 1437 1118
0 1437 1241
0 1437 1361
0 1437 1480
0 1437 1600
0 1437 1721
0 1437 1846
0 1437 1976
0 1437 2111
0 1437 2253
0 1437 2398
0 1437 2545
0 1437 2691
0 1437 2834
0 1437 2974
0 1437 3113
0 1437 3250
0 1437 3389
0 1437 3530
0 1437 3674
0 1437 3826
0 1437 3987
0 1437 4095
0 1437 4095
0 1552 0
0 1552 137
0 1552 291
0 1552 440
0 1552 585
0 1552 725
0 1552 860
0 1552 991
0 1552 1118
0 1552 1241
0 1552 1361
0 1552 1480
0 1552 1600
0 1552 1721
0 1552 1846
0 1552 1976
0 1552 2111
0 1552 2253
0 1552 2398
0 1552 2545
0 1552 2691
0 1552 2834
0 1552 2974
0 1552 3113
0 1552 3250
0 1552 3389
0 1552 3530
0 1552 3674
0 1552 3826
0 1552 3987
0 1552 4095
0 1552 4095
0 1668 0
0 1668 137
0 1668 291
0 1668 440
0 1668 585
0 1668 725
0 1668 860
0 1668 991
0 1668 1118
0 1668 1241
0 1668 1361
0 1668 1480
0 1668 1600
0 1668 1721
0 1668 1846
0 1668 1976
0 1668 2111
0 1668 2253
0 1668 2398
0 1668 2545
0 1668 2691
0 1668 2834
0 1668 2974
0 1668 3113
0 1668 3250
0 1668 3389
0 1668 3530
0 1668 3674
0 1668 3826
0 1668 3987
0 1668 4095
0 1668 4095
0 1788 0
0 1788 137
0 1788 291
0 1788 440
0 1788 585
0 1788 725
0 1788 860
0 1788 991
0 1788 1118
0 1788 1241
0 1788 1361
0 1788 1480
0 1788 1600
0 1788 1721
0 1788 1846
0 1788 1976
0 1788 2111
0 1788 2253
0 1788 2398
0 1788 2545
0 1788 2691
0 1788 2834
0 1788 2974
0 1788 3113
0 1788 3250
0 1788 3389
0 1788 3530
0 1788 3674
0 1788 3826
0 1788 3987
0 1788 4095
0 1788 4095
0 1913 0
0 1913 137
0 1913 291
0 1913 440
0 1913 585
0 1913 725
0 1913 860
0 1913 991
0 1913 1118
0 1913 1241
0 1913 1361
0 1913 1480
0 1913 1600
0 1913 1721
0 1913 1846
0 1913 1976
0 1913 2111
0 1913 2253
0 1913 2398
0 1913 2545
0 1913 2691
0 1913 2834
0 1913 2974
0 1913 3113
0 1913 3250
0 1913 3389
0 1913 3530
0 1913 3674
0 1913 3826
0 1913 3987
0 1913 4095
0 1913 4095
0 2044 0
0 2044 137
0 2044 291
0 2044 440
0 2044 585
0 2044 725
0 2044 860
0 2044 991
0 2044 1118
0 2044 1241
0 2044 1361
0 2044 1480
0 2044 1600
0 2044 1721
0 2044 1846
0 2044 1976
0 2044 2111
0 2044 2253
0 2044 2398
0 2044 2545
0 2044 2691
0 2044 2834
0 2044 2974
0 2044 3113
0 2044 3250
0 2044 3389
0 2044 3530
0 2044 3674
0 2044 3826
0 2044 3987
0 2044 4095
0 2044 4095
0 2181 0
0 2181 137
0 2181 291
0 2181 440
0 2181 585
0 2181 725
0 2181 860
0 2181 991
0 2181 1118
0 2181 1241
0 2181 1361
0 2181 1480
0 2181 1600
0 2181 1721
0 2181 1846
0 2181 1976
0 2181 2111
0 2181 2253
0 2181 2398
0 2181 2545
0 2181 2691
0 2181 2834
0 2181 2974
0 2181 3113
0 2181 3250
0 2181 3389
0 2181 3530
0 2181 3674
0 2181 3826
0 2181 3987
0 2181 4095
0 2181 4095
0 2320 0
0 2320 137
0 2320 291
0 2320 440
0 2320 585
0 2320 725
0 2320 860
0 2320 991
0 2320 1118
0 2320 1241
0 2320 1361
0 2320 1480
0 2320 1600
0 2320 1721
0 2320 1846
0 2320 1976
0 2320 2111
0 2320 2253
0 2320 2398
0 2320 2545
0 2320 2691
0 2320 2834
0 2320 2974
0 2320 3113
0 2320 3250
0 2320 3389
0 2320 3530
0 2320 3674
0 2320 3826
0 2320 3987
0 2320 4095
0 2320 4095
0 2461 0
0 2461 137
0 2461 291
0 2461 440
0 2461 585
0 2461 725
0 2461 860
0 2461 991
0 2461 1118
0 2461 1241
0 2461 1361
0 2461 1480
0 2461 1600
0 2461 1721
0 2461 1846
0 2461 1976
0 2461 2111
0 2461 2253
0 2461 2398
0 2461 2545
0 2461 2691
0 2461 2834
0 2461 2974
0 2461 3113
0 2461 3250
0 2461 3389
0 2461 3530
0 2461 3674
0 2461 3826
0 2461 3987
0 2461 4095
0 2461 4095
0 2601 0
0 2601 137
0 2601 291
0 2601 440
0 2601 585
0 2601 725
0 2601 860
0 2601 991
0 2601 1118
0 2601 1241
0 2601 1361
0 2601 1480
0 2601 1600
0 2601 1721
0 2601 1846
0 2601 1976
0 2601 2111
0 2601 2253
0 2601 2398
0 2601 2545
0 2601 2691
0 2601 2834
0 2601 2974
0 2601 3113
0 2601 3250
0 2601 3389
0 2601 3530
0 2601 3674
0 2601 3826
0 2601 3987
0 2601 4095
0 2601 4095
0 2737 0
0 2737 137
0 2737 291
0 2737 440
0 2737 585
0 2737 725
0 2737 860
0 2737 991
0 2737 1118
0 2737 1241
0 2737 1361
0 2737 1480
0 2737 1600
0 2737 1721
0 2737 1846
0 2737 1976
0 2737 2111
0 2737 2253
0 2737 2398
0 2737 2545
0 2737 2691
0 2737 2834
0 2737 2974
0 2737 3113
0 2737 3250
0 2737 3389
0 2737 3530
0 2737 3674
0 2737 3826
0 2737 3987
0 2737 4095
0 2737 4095
0 2870 0
0 2870 137
0 2870 291
0 2870 440
0 2870 585
0 2870 725
0 2870 860
0 2870 991
0 2870 1118
0 2870 1241
0 2870 1361
0 2870 1480
0 2870 1600
0 2870 1721
0 2870 1846
0 2870 1976
0 2870 2111
0 2870 2253
0 2870 2398
0 2870 2545
0 2870 2691
0 2870 2834
0 2870 2974
0 2870 3113
0 2870 3250
0 2870 3389
0 2870 3530
0 2870 3674
0 2870 3826
0 2870 3987
0 2870 4095
0 2870 4095
0 3001 0
0 3001 137
0 3001 291
0 3001 440
0 3001 585
0 3001 725
0 3001 860
0 3001 991
0 3001 1118
0 3001 1241
0 3001 1361
0 3001 1480
0 3001 1600
0 3001 1721
0 3001 1846
0 3001 1976
0 3001 2111
0 3001 2253
0 3001 2398
0 3001 2545
0 3001 2691
0 3001 2834
0 3001 2974
0 3001 3113
0 3001 3250
0 3001 3389
0 3001 3530
0 3001 3674
0 3001 3826
0 3001 3987
0 3001 4095
0 3001 4095
0 3130 0
0 3130 137
0 3130 291
0 3130 440
0 3130 585
0 3130 725
0 3130 860
0 3130 991
0 3130 1118
0 3130 1241
0 3130 1361
0 3130 1480
0 3130 1600
0 3130 1721
0 3130 1846
0 3130 1976
0 3130 2111
0 3130 2253
0 3130 2398
0 3130 2545
0 3130 2691
0 3130 2834
0 3130 2974
0 3130 3113
0 3130 3250
0 3130 3389
0 3130 3530
0 3130 3674
0 3130 3826
0 3130 3987
0 3130 4095
0 3130 4095
0 3259 0
0 3259 137
0 3259 291
0 3259 440
0 3259 585
0 3259 725
0 3259 860
0 3259 991
0 3259 1118
0 3259 1241
0 3259 1361
0 3259 1480
0 3259 1600
0 3259 1721
0 3259 1846
0 3259 1976
0 3259 2111
0 3259 2253
0 3259 2398
0 3259 2545
0 3259 2691
0 3259 2834
0 3259 2974
0 3259 3113
0 3259 3250
0 3259 3389
0 3259 3530
0 3259 3674
0 3259 3826
0 3259 3987
0 3259 4095
0 3259 4095
0 3389 0
0 3389 137
0 3389 291
0 3389 440
0 3389 585
0 3389 725
0 3389 860
0 3389 991
0 3389 1118
0 3389 1241
0 3389 1361
0 3389 1480
0 3389 1600
0 3389 1721
0 3389 1846
0 3389 1976
0 3389 2111
0 3389 2253
0 3389 2398
0 3389 2545
0 3389 2691
0 3389 2834
0 3389 2974
0 3389 3113
0 3389 3250
0 3389 3389
0 3389 3530
0 3389 3674
0 3389 3826
0 3389 3987
0 3389 4095
0 3389 4095
0 3522 0
0 3522 137
0 3522 291
0 3522 440
0 3522 585
0 3522 725
0 3522 860
0 3522 991
0 3522 1118
0 3522 1241
0 3522 1361
0 3522 1480
0 3522 1600
0 3522 1721
0 3522 1846
0 3522 1976
0 3522 2111
0 3522 2253
0 3522 2398
0 3522 2545
0 3522 2691
0 3522 2834
0 3522 2974
0 3522 3113
0 3522 3250
0 3522 3389
0 3522 3530
0 3522 3674
0 3522 3826
0 3522 3987
0 3522 4095
0 3522 4095
0 3657 0
0 3657 137
0 3657 291
0 3657 440
